X: 16153
T: Green Isle
R: waltz
M: 3/4
K: Emajor
|:"E" E4 e2|"G#m" d4 B2|"C#m" G3 A B2|"A" c4 B2|"E" B3 A G2|
"F#m" B4 A2|"D" F6|F3 E =D2|"Bm" =D4 E2|"A" E6 -|E6:|
|:"F#m" F3 A c2|f4 a2|"D" a3 g f2|"E" {f}g4 e2|[e6B6]|"C#m" B3 c B2|
"A" A3 B c2|e6|"F#m" e3 f g2|"E" g4 f2|"B" f6 -|f6:|
P: ending
|:"E" E3 F G2|"G#m" B4 =d2|"D" =d3 c A2|"A" E6|"G?" c3 B =G2|
"D" =D4 D2|=D3 C D2|1 "E" E6|"B" E4 D2|2 "E" E6 -|E6:|

